icons/desmos-filled.svg

<svg width="256" height="256" viewBox="0 0 256 256" fill="none" xmlns="http://www.w3.org/2000/svg">
<g clip-path="url(#clip0_521_28)">
<path d="M196 0H60C26.8629 0 0 26.8629 0 60V196C0 229.137 26.8629 256 60 256H196C229.137 256 256 229.137 256 196V60C256 26.8629 229.137 0 196 0Z" fill="#128341"/>
<path d="M19 16.1779C28.5839 48.3876 52.5889 126.435 66.1201 147C71.0001 142.186 75.2295 138.315 80 133.61C64.1893 106.008 44.0989 36.467 35.449 5C29.2989 7.71976 23.7353 11.5264 19 16.1779Z" fill="#FCFCFC"/>
<path d="M173.176 169.698C151.409 169.698 137.766 128 106.828 128C76.487 128 58.9307 169.779 40.1819 169.92H40.0729C26.7152 169.92 14.7225 151.654 0 139.828V165.695C12.7683 177.791 24.8434 189 40.1819 189C68.8082 189 86.7751 146.317 106.828 146.317C125.242 146.317 143.916 189 173.474 189C201.728 189 222.639 146.16 239.972 146.124H240.008C247.347 146.124 253.374 150.986 256 153.499V132.025C252.459 130.169 246.771 128 239.525 128C209.892 128 194.124 169.698 173.176 169.698Z" fill="#FCFCFC"/>
<path d="M81 171.836C88.8984 182.263 103.362 202 126.371 202H126.512C146.318 201.931 156 188.72 156 188.72C150.826 186.096 141.088 177.604 141.088 177.604C136.025 181.507 131.121 183.067 126.5 183.067C110.045 183.067 97.2004 163.28 93.7676 159L81 171.836Z" fill="#FCFCFC"/>
<path d="M160 154.629C160 154.629 165.641 161.57 176.055 164C203.631 121.547 224.793 51.1106 234 13.5C229.5 9.5 223.298 5.91796 217.5 4C213.919 17.4182 188.478 111.592 160 154.629Z" fill="#FCFCFC"/>
</g>
<defs>
<clipPath id="clip0_521_28">
<rect width="256" height="256" fill="white"/>
</clipPath>
</defs>
</svg>

<svg xmlns="http://www.w3.org/2000/svg" width="256" height="256" fill="none"><g clip-path="url(#clip0_521_28)"><path fill="#128341" d="M196 0H60C26.863 0 0 26.863 0 60v136c0 33.137 26.863 60 60 60h136c33.137 0 60-26.863 60-60V60c0-33.137-26.863-60-60-60"/><path fill="#FCFCFC" d="M19 16.178C28.584 48.388 52.589 126.435 66.12 147c4.88-4.814 9.11-8.685 13.88-13.39C64.19 106.008 44.099 36.467 35.449 5A55.5 55.5 0 0 0 19 16.178"/><path fill="#FCFCFC" d="M173.176 169.698c-21.767 0-35.41-41.698-66.348-41.698-30.341 0-47.897 41.779-66.646 41.92h-.11c-13.357 0-25.35-18.266-40.072-30.092v25.867C12.768 177.791 24.843 189 40.182 189c28.626 0 46.593-42.683 66.646-42.683 18.414 0 37.088 42.683 66.646 42.683 28.254 0 49.165-42.84 66.498-42.876h.036c7.339 0 13.366 4.862 15.992 7.375v-21.474A35.6 35.6 0 0 0 239.525 128c-29.633 0-45.401 41.698-66.349 41.698"/><path fill="#FCFCFC" d="M81 171.836C88.898 182.263 103.362 202 126.371 202h.141c19.806-.069 29.488-13.28 29.488-13.28-5.174-2.624-14.912-11.116-14.912-11.116-5.063 3.903-9.967 5.463-14.588 5.463-16.455 0-29.3-19.787-32.732-24.067zm79-17.207s5.641 6.941 16.055 9.371C203.631 121.547 224.793 51.11 234 13.5c-4.5-4-10.702-7.582-16.5-9.5-3.581 13.418-29.022 107.592-57.5 150.629"/></g><defs><clipPath id="clip0_521_28"><path fill="#fff" d="M0 0h256v256H0z"/></clipPath></defs></svg>
